X:939
T:Cape North Jig
O:england
E:16
I:speed 300
K:F
g| d2 G GAG| dcB ABc| d2 G GAB| AGF ABc|
d2 G GAG| dcB ABc| def cAF| G3 G2:|
A| F2 e f2 g| fed f3| A2 B c2 d| cAB c3|
def geg| afa g2 e| f2 d cAF| G3 G2 :|
M:4/4


